X: 25994
T: Mayo Fling, The
R: hornpipe
M: 4/4
K: Dmajor
d>B|:A>FD>F E>FD>F|A4A2 d>B|A>FD>F E>FD>F|B4B2 A/B/c|
d2 d>c B/c/d B>A|F/G/A F>D E>DB,>D|1 D>EF>A F>ED>A,|D4D4:|2 D>EF>A B>AF>E|D4D4||
a2 f>ef>d A2|B/c/d B>A F>E D2|E/D/E F/E/F A>FE>D|B4 B2 f>g|
a/b/a f>ef>d A2|B/c/d B>A F>E D2|~E2 F>A B>AF>E|D4D4|
a/^g/a f>ef>d A2|B/c/d B>A F>E D2|E/D/E F/E/F A>FE>D|B4 B2 f>g|
a/b/a f>ef>d A2|B/c/d B>A F>E D2|~E2 F>A B>AF>E|D4D4||

